X: 397
M:C|
L:1/8
K:Bb
f | (ed)(cB) ~B2 (df) | Tgfdf gabf | (ed)(cB) ~B2 (dB) | cAFA cdef |
(ed)(cB) ~B2 (df) | gfdf Tgfga | b2 b>f (ed)(cB) | AFcA dFcF ||
~B2 (df) bfdf | bfdf bfdB | ~F2 (Ac) fg=eg | fg=eg fcAF |


